X: 1
T:Ruaraidh's Hornpipe
M:4/4
L:1/8
Q:150
C:Stephen P. McNally
S:© 1994
R:Hornpipe
N:For Ruaraidh Mitchell
H:
K:D
F>G||:(3ABA F>A B>GE>G|(3ABA d>A e>Af>A|(3ABA F>A B>Ge>G|(3def f>d e>gg>
a|
(3ABA F>A B>GE>G|(3ABA f>A e>Ad>A|(3ABA F>A B>Ge>G|1(3def g>e f>dd>B:|2(
3def g>e f>dd>e||
f>d(3def g>ec>A|d>B (3Bcd e>cA>F|G>Bd>g F>Ad>f|(3efd c>B A>GF>E|
(3DDD F>A B>GE>G|(3ABA d>A e>Af>A|g>fe>c A>ce>c|1(3def g>e f>dd>e:|2(3de
f g>e f>dd2||
